public/avatar/body/127.svg

<svg xmlns:xlink="http://www.w3.org/1999/xlink" height="82" width="84.85" xmlns="http://www.w3.org/2000/svg"><g transform="translate(37.4 42.25)"><use height="38" transform="translate(-11.95 -17.45)" width="32.05" xlink:href="#a"/><use height="38.95" transform="translate(-12.45 -17.95)" width="33.05" xlink:href="#b"/><use height="26.65" transform="translate(4.1 1.2)" width="19.75" xlink:href="#c"/><use height="26.65" transform="matrix(-1 0 0 1 4.1 1.1)" width="19.75" xlink:href="#c"/><use height="16.4" transform="translate(-12.4 5.7)" width="32.7" xlink:href="#d"/><use height="3.25" transform="translate(17.9 15.3)" width="5.15" xlink:href="#e"/><use height="3.25" transform="translate(9.8 19.3)" width="5.15" xlink:href="#e"/><use height="3.25" transform="matrix(1.0889 .2278 -.2278 1.0889 .45 20.15)" width="5.15" xlink:href="#e"/><use height="3.25" transform="matrix(.8895 .5912 -.6434 .9682 -7.05 17.9)" width="5.15" xlink:href="#e"/><use height="3.25" transform="matrix(.8895 .5912 -.6434 .9682 -13.75 13.95)" width="5.15" xlink:href="#e"/></g><defs><use height="38" width="32.05" xlink:href="#f" id="a"/><use height="38.95" width="33.05" xlink:href="#g" id="b"/><use height="26.65" width="19.75" xlink:href="#h" id="c"/><use height="3.25" width="5.15" xlink:href="#i" id="e"/><path d="M27.35 7.4q2.15 4.15 3.55 8.75 1.45 4.7 1.15 9.5-.35 4.95-4.2 8.1-3.8 3.2-8.75 4.05l-2.6.2q-3.6 0-7.05-1.15-4.65-1.6-7.1-5.5Q-.2 27.4.05 23q.2-4.4 2-9.3Q3.85 8.75 7 5.05 10.1 1.3 14.7.1l1.8-.1q1.9.05 3.7.8 4.75 2.05 7.15 6.6" fill="#fff" fill-rule="evenodd" transform="translate(-.05)" id="f"/><path d="M27.35 7.4Q24.95 2.85 20.2.8 17.55-.3 14.7.1 10.1 1.3 7 5.05q-3.15 3.7-4.95 8.65-1.8 4.9-2 9.3-.25 4.4 2.3 8.35 2.45 3.9 7.1 5.5 4.65 1.55 9.65.95 4.95-.85 8.75-4.05 3.85-3.15 4.2-8.1.3-4.8-1.15-9.5-1.4-4.6-3.55-8.75Z" fill="none" stroke="#333" stroke-linecap="round" stroke-linejoin="round" transform="translate(.45 .5)" id="g"/><path d="M2.95 2.15Q1.8 3.45 1 3.2t.3-1.4Q-.75 1.2.4.9q1.15-.3 2.25.55.1-.8 1.5-1.35 1.25-.45.25 1.2 1.25.75.4 1.1-.9.3-1.85-.25" fill="#a34881" fill-rule="evenodd" id="i"/><g id="h" fill-rule="evenodd"><path d="M15.45 16.75Q14.4 10.6 15.7 4.5l1.15-1.15v-.1l-2-.2.5-.55.3-.4.15-.4.05-.35-.8-.2q-3.75 2-4.85 6.05l-1.15-.4Q4.1 5.55 0 8.15v-1.6Q4.05 4.2 8.5 5.4l1.1.35Q11.05.9 15.75.15l1 .2.3.7-1.1 1.5 1.4-.15.75.35.15.4L16.8 4.3q-1.7 5.8-.15 11.65 1.7.35 2.75 1.55.6.75.15 1.55l-.85.35-.2.75-.95 1.35-.8.05-1.5 1.5-.75-.2-.65.8-.75.5-1 .2-.45.05-1.4.85L9 25l-.2.25-.25.25-.7.2H7.1l-.75-.4-.35.5-1.15.35-.85-.4-1.7.75-.85-.65-.15.45-1.3.5v-1.2l.6-.15.65-1.7 1.2 1.6.7-.25.55-1.6 1.1 1.35.75-.05.5-1.75L7.2 24.5l.9-.2.45-1.6 1.35 1 .75-.15.05-1.65 1.75 1.15.3-.1.85-.6-.35-1.55 1.5.8.7-.45-.35-1.55 1.75.65.55-.65-1-1.3 1.35.25.45-.35.05-1.1-2.3-1.1-.5.75" fill="#623756" transform="translate(0 -.15)"/><path d="M0 8.15q4.1-2.6 9.05-1.35l1.15.4q1.1-4.05 4.85-6.05l.8.2-.05.35-.15.4-.3.4-.5.55 2 .2v.1L15.7 4.5q-1.3 6.1-.25 12.25Q9 21.4.95 22L0 21.85V8.15" fill="#f493ba" transform="translate(0 -.15)"/><path d="m15.45 16.75.5-.75 2.3 1.1-.05 1.1-.45.35-1.35-.25 1 1.3-.55.65-1.75-.65.35 1.55-.7.45-1.5-.8.35 1.55-.85.6-.3.1-1.75-1.15-.05 1.65-.75.15-1.35-1-.45 1.6-.9.2-1.15-1.45-.5 1.75-.75.05-1.1-1.35-.55 1.6-.7.25-1.2-1.6-.65 1.7-.6.15v-3.75l.95.15q8.05-.6 14.5-5.25" fill="#fff" transform="translate(0 -.15)"/></g><g id="d" fill-rule="evenodd"><path d="M5.05 14.3q-9.7-.25-14.2-2 1.95-2.15 7.2-1.6 4.75.5 6.9 2.25 2.75-2 7.65-1.8 4.75.2 4.75 1.75-1.85 1.7-12.3 1.4" fill="#d17d9b" transform="translate(12.4 -5.7)"/><path d="M4.15 10.4q-1.55 1.15-2.7 1.2-1.55.1-.15-2.9-.85-1-.5-2.3.3-1.35 3.55 1.25.2-.5 1.25-.3 1.35-1.5 3.05-1.65 1.8-.15 0 2.9 2.2 4.1-3.05 1.55-.3 1.15-1.45.25" fill="#692f56" transform="translate(12.4 -5.7)"/><path d="M1.55 7.15q.25-.85 2.9 1.2.15-.25.9-.2 1.15-1.2 2.55-1.5 1.45-.3-.3 2.05.95.7.75 1.35-.25.75-3-.55-.2.6-.8.25-1.3.95-2.3 1.1-1.4.25.1-2.05-1.05-.8-.8-1.65" fill="#a34881" transform="translate(12.4 -5.7)"/><path d="M5.6 10q0 .75-.75.75T4.1 10V7.9q0-.75.75-.75t.75.75V10" fill="#692f56" transform="translate(12.4 -5.7)"/><path d="m5.3 9.95-.45.45q-.45 0-.45-.45V8.2q0-.45.45-.45t.45.45v1.75" fill="#a34881" transform="translate(12.4 -5.7)"/><path d="M6.2 12.1q0 1.2-1.25 1.2-1.2 0-1.2-1.2t1.2-1.2q1.25 0 1.25 1.2" fill="#692f56" transform="translate(12.4 -5.7)"/><path d="M5.8 12.1q0 .85-.85.85t-.85-.85q0-.8.85-.8t.85.8" fill="#a34881" transform="translate(12.4 -5.7)"/><path d="M2.55 7.35q.7.15.85.55l-1.6-.4q0-.35.75-.15m3.8.3Q7.85 6.3 8 7q.05.35-1.65.65m-1.65.2L4.55 9.4q-.3-1.5.15-1.55m-.35 4.2q-.05-.4.3-.55.3-.2.4.1-.45 0-.7.45" fill="#d189b9" transform="translate(12.4 -5.7)"/><path d="M5.3 18.85q-.25-2.6-.9-3.25-.6-.55-2.8-.65-2.7-.15-3.45 1.35-1.55 3.1-.35-1.4l-4.75-1.45q-4.2-1.45-5.45-2.4 7.85 3.3 19.15 3 9.85-.3 12.7-2.3l-.1 2.65q.05 1.65.95 2.95-.25 1.25-2.65 2.05.45-1.9.05-3.35-.6-1.95-2.7-1.3l-.6 1.15q-.65 1.75-.9 5.05-1.05 1.2-2.45 1.15 2.15-3.55 1.9-4.8-.55-2.3-.9-2.45-.7-.35-3.25 0-2.55.3-2.75.7-.25.4-.75 3.3" fill="#d17d9b" transform="translate(12.4 -5.7)"/><path d="m3.05 14.4 11.85-.9-7.45 1.3q-4.95.35-13.05-1.45l8.65 1.05" fill="#9c5570" transform="translate(12.4 -5.7)"/></g></defs></svg>

<?xml version="1.0" encoding="UTF-8" standalone="no"?>
<svg xmlns:xlink="http://www.w3.org/1999/xlink" height="82.0px" width="84.85px" xmlns="http://www.w3.org/2000/svg">
  <g transform="matrix(1.0, 0.0, 0.0, 1.0, 37.4, 42.25)">
    <use height="38.0" transform="matrix(1.0, 0.0, 0.0, 1.0, -11.95, -17.45)" width="32.05" xlink:href="#sprite0"/>
    <use height="38.95" transform="matrix(1.0, 0.0, 0.0, 1.0, -12.45, -17.95)" width="33.05" xlink:href="#sprite1"/>
    <use height="26.65" transform="matrix(1.0, 0.0, 0.0, 1.0, 4.1, 1.2)" width="19.75" xlink:href="#sprite2"/>
    <use height="26.65" transform="matrix(-1.0, 0.0, 0.0, 1.0, 4.1, 1.1)" width="19.75" xlink:href="#sprite2"/>
    <use height="16.4" transform="matrix(1.0, 0.0, 0.0, 1.0, -12.4, 5.7)" width="32.7" xlink:href="#shape3"/>
    <use height="3.25" transform="matrix(1.0, 0.0, 0.0, 1.0, 17.9, 15.3)" width="5.15" xlink:href="#sprite3"/>
    <use height="3.25" transform="matrix(1.0, 0.0, 0.0, 1.0, 9.8, 19.3)" width="5.15" xlink:href="#sprite3"/>
    <use height="3.25" transform="matrix(1.0889, 0.2278, -0.2278, 1.0889, 0.45, 20.15)" width="5.15" xlink:href="#sprite3"/>
    <use height="3.25" transform="matrix(0.8895, 0.5912, -0.6434, 0.9682, -7.05, 17.9)" width="5.15" xlink:href="#sprite3"/>
    <use height="3.25" transform="matrix(0.8895, 0.5912, -0.6434, 0.9682, -13.75, 13.95)" width="5.15" xlink:href="#sprite3"/>
  </g>
  <defs>
    <g id="sprite0" transform="matrix(1.0, 0.0, 0.0, 1.0, -0.05, 0.0)">
      <use height="38.0" transform="matrix(1.0, 0.0, 0.0, 1.0, 0.05, 0.0)" width="32.05" xlink:href="#shape0"/>
    </g>
    <g id="shape0" transform="matrix(1.0, 0.0, 0.0, 1.0, -0.05, 0.0)">
      <path d="M27.35 7.4 Q29.5 11.55 30.9 16.15 32.35 20.85 32.05 25.65 31.7 30.6 27.85 33.75 24.05 36.95 19.1 37.8 L16.5 38.0 Q12.9 38.0 9.45 36.85 4.8 35.25 2.35 31.35 -0.2 27.4 0.05 23.0 0.25 18.6 2.05 13.7 3.85 8.75 7.0 5.05 10.1 1.3 14.7 0.1 L16.5 0.0 Q18.4 0.05 20.2 0.8 24.95 2.85 27.35 7.4" fill="#ffffff" fill-rule="evenodd" stroke="none"/>
    </g>
    <g id="sprite1" transform="matrix(1.0, 0.0, 0.0, 1.0, 0.45, 0.5)">
      <use height="38.95" transform="matrix(1.0, 0.0, 0.0, 1.0, -0.45, -0.5)" width="33.05" xlink:href="#shape1"/>
    </g>
    <g id="shape1" transform="matrix(1.0, 0.0, 0.0, 1.0, 0.45, 0.5)">
      <path d="M27.35 7.4 Q24.95 2.85 20.2 0.8 17.55 -0.3 14.7 0.1 10.1 1.3 7.0 5.05 3.85 8.75 2.05 13.7 0.25 18.6 0.05 23.0 -0.2 27.4 2.35 31.35 4.8 35.25 9.45 36.85 14.1 38.4 19.1 37.8 24.05 36.95 27.85 33.75 31.7 30.6 32.05 25.65 32.35 20.85 30.9 16.15 29.5 11.55 27.35 7.4 Z" fill="none" stroke="#333333" stroke-linecap="round" stroke-linejoin="round" stroke-width="1.0"/>
    </g>
    <g id="sprite2" transform="matrix(1.0, 0.0, 0.0, 1.0, 0.0, -0.15)">
      <use height="26.65" transform="matrix(1.0, 0.0, 0.0, 1.0, 0.0, 0.15)" width="19.75" xlink:href="#shape2"/>
    </g>
    <g id="shape2" transform="matrix(1.0, 0.0, 0.0, 1.0, 0.0, -0.15)">
      <path d="M15.45 16.75 Q14.4 10.6 15.7 4.5 L16.85 3.35 16.85 3.25 14.85 3.05 15.35 2.5 15.65 2.1 15.8 1.7 15.85 1.35 15.05 1.15 Q11.3 3.15 10.2 7.2 L9.05 6.8 Q4.1 5.55 0.0 8.15 L0.0 6.55 Q4.05 4.2 8.5 5.4 L9.6 5.75 Q11.05 0.9 15.75 0.15 L16.75 0.35 17.05 1.05 15.95 2.55 17.35 2.4 18.1 2.75 18.25 3.15 16.8 4.3 Q15.1 10.1 16.65 15.95 18.35 16.3 19.4 17.5 20.0 18.25 19.55 19.05 L18.7 19.4 18.5 20.15 17.55 21.5 16.75 21.55 15.25 23.05 14.5 22.85 13.85 23.65 13.1 24.15 12.1 24.35 11.65 24.4 10.25 25.25 9.0 25.0 8.8 25.25 8.55 25.5 7.85 25.7 7.1 25.7 6.35 25.3 6.0 25.8 4.85 26.15 4.0 25.75 2.3 26.5 1.45 25.85 1.3 26.3 0.0 26.8 0.0 25.6 0.6 25.45 1.25 23.75 2.45 25.35 3.15 25.1 3.7 23.5 4.8 24.85 5.55 24.8 6.05 23.05 7.2 24.5 8.1 24.3 8.55 22.7 9.9 23.7 10.65 23.55 10.7 21.9 12.45 23.05 12.75 22.95 13.6 22.35 13.25 20.8 14.75 21.6 15.45 21.15 15.1 19.6 16.85 20.25 17.4 19.6 16.4 18.3 17.75 18.55 18.2 18.2 18.25 17.1 15.95 16.0 15.45 16.75" fill="#623756" fill-rule="evenodd" stroke="none"/>
      <path d="M0.0 8.15 Q4.1 5.55 9.05 6.8 L10.2 7.2 Q11.3 3.15 15.05 1.15 L15.85 1.35 15.8 1.7 15.65 2.1 15.35 2.5 14.85 3.05 16.85 3.25 16.85 3.35 15.7 4.5 Q14.4 10.6 15.45 16.75 9.0 21.4 0.95 22.0 L0.0 21.85 0.0 8.15" fill="#f493ba" fill-rule="evenodd" stroke="none"/>
      <path d="M15.45 16.75 L15.95 16.0 18.25 17.1 18.2 18.2 17.75 18.55 16.4 18.3 17.4 19.6 16.85 20.25 15.1 19.6 15.45 21.15 14.75 21.6 13.25 20.8 13.6 22.35 12.75 22.95 12.45 23.05 10.7 21.9 10.65 23.55 9.9 23.7 8.55 22.7 8.1 24.3 7.2 24.5 6.05 23.05 5.55 24.8 4.8 24.85 3.7 23.5 3.15 25.1 2.45 25.35 1.25 23.75 0.6 25.45 0.0 25.6 0.0 21.85 0.95 22.0 Q9.0 21.4 15.45 16.75" fill="#ffffff" fill-rule="evenodd" stroke="none"/>
    </g>
    <g id="shape3" transform="matrix(1.0, 0.0, 0.0, 1.0, 12.4, -5.7)">
      <path d="M5.05 14.3 Q-4.65 14.05 -9.15 12.3 -7.2 10.15 -1.95 10.7 2.8 11.2 4.95 12.95 7.7 10.95 12.6 11.15 17.35 11.35 17.35 12.9 15.5 14.6 5.05 14.3" fill="#d17d9b" fill-rule="evenodd" stroke="none"/>
      <path d="M4.15 10.4 Q2.6 11.55 1.45 11.6 -0.1 11.7 1.3 8.7 0.45 7.7 0.8 6.4 1.1 5.05 4.35 7.65 4.55 7.15 5.6 7.35 6.95 5.85 8.65 5.7 10.45 5.55 8.65 8.6 10.85 12.7 5.6 10.15 5.3 11.3 4.15 10.4" fill="#692f56" fill-rule="evenodd" stroke="none"/>
      <path d="M1.55 7.15 Q1.8 6.3 4.45 8.35 4.6 8.1 5.35 8.15 6.5 6.95 7.9 6.65 9.35 6.35 7.6 8.7 8.55 9.4 8.35 10.05 8.1 10.8 5.35 9.5 5.15 10.1 4.55 9.75 3.25 10.7 2.25 10.85 0.85 11.1 2.35 8.8 1.3 8.0 1.55 7.15" fill="#a34881" fill-rule="evenodd" stroke="none"/>
      <path d="M5.6 10.0 Q5.6 10.75 4.85 10.75 4.1 10.75 4.1 10.0 L4.1 7.9 Q4.1 7.15 4.85 7.15 5.6 7.15 5.6 7.9 L5.6 10.0" fill="#692f56" fill-rule="evenodd" stroke="none"/>
      <path d="M5.3 9.95 L4.85 10.4 Q4.4 10.4 4.4 9.95 L4.4 8.2 Q4.4 7.75 4.85 7.75 5.3 7.75 5.3 8.2 L5.3 9.95" fill="#a34881" fill-rule="evenodd" stroke="none"/>
      <path d="M6.2 12.1 Q6.2 13.3 4.95 13.3 3.75 13.3 3.75 12.1 3.75 10.9 4.95 10.9 6.2 10.9 6.2 12.1" fill="#692f56" fill-rule="evenodd" stroke="none"/>
      <path d="M5.8 12.1 Q5.8 12.95 4.95 12.95 4.1 12.95 4.1 12.1 4.1 11.3 4.95 11.3 5.8 11.3 5.8 12.1" fill="#a34881" fill-rule="evenodd" stroke="none"/>
      <path d="M2.55 7.35 Q3.25 7.5 3.4 7.9 L1.8 7.5 Q1.8 7.15 2.55 7.35" fill="#d189b9" fill-rule="evenodd" stroke="none"/>
      <path d="M6.35 7.65 Q7.85 6.3 8.0 7.0 8.05 7.35 6.35 7.65" fill="#d189b9" fill-rule="evenodd" stroke="none"/>
      <path d="M4.7 7.85 L4.55 9.4 Q4.25 7.9 4.7 7.85" fill="#d189b9" fill-rule="evenodd" stroke="none"/>
      <path d="M4.35 12.05 Q4.3 11.65 4.65 11.5 4.95 11.3 5.05 11.6 4.6 11.6 4.35 12.05" fill="#d189b9" fill-rule="evenodd" stroke="none"/>
      <path d="M5.3 18.85 Q5.05 16.25 4.4 15.6 3.8 15.05 1.6 14.95 -1.1 14.8 -1.85 16.3 -3.4 19.4 -2.2 14.9 L-6.95 13.45 Q-11.15 12.0 -12.4 11.05 -4.55 14.35 6.75 14.05 16.6 13.75 19.45 11.75 L19.35 14.4 Q19.4 16.05 20.3 17.35 20.05 18.6 17.65 19.4 18.1 17.5 17.7 16.05 17.1 14.1 15.0 14.75 L14.4 15.9 Q13.75 17.65 13.5 20.95 12.45 22.15 11.05 22.1 13.2 18.55 12.95 17.3 12.4 15.0 12.05 14.85 11.35 14.5 8.8 14.85 6.25 15.15 6.05 15.55 5.8 15.95 5.3 18.85" fill="#d17d9b" fill-rule="evenodd" stroke="none"/>
      <path d="M3.05 14.4 L14.9 13.5 7.45 14.8 Q2.5 15.15 -5.6 13.35 L3.05 14.4" fill="#9c5570" fill-rule="evenodd" stroke="none"/>
    </g>
    <g id="sprite3" transform="matrix(1.0, 0.0, 0.0, 1.0, 0.0, 0.0)">
      <use height="3.25" transform="matrix(1.0, 0.0, 0.0, 1.0, 0.0, 0.0)" width="5.15" xlink:href="#shape4"/>
    </g>
    <g id="shape4" transform="matrix(1.0, 0.0, 0.0, 1.0, 0.0, 0.0)">
      <path d="M2.95 2.15 Q1.8 3.45 1.0 3.2 0.2 2.95 1.3 1.8 -0.75 1.2 0.4 0.9 1.55 0.6 2.65 1.45 2.75 0.65 4.15 0.1 5.4 -0.35 4.4 1.3 5.65 2.05 4.8 2.4 3.9 2.7 2.95 2.15" fill="#a34881" fill-rule="evenodd" stroke="none"/>
    </g>
  </defs>
</svg>
